src/ui/external-link-fill.svg

<?xml version="1.0" encoding="UTF-8"?><svg xmlns="http://www.w3.org/2000/svg" viewBox="0 0 32 32"><defs><style>.uuid-533f01c1-fae2-4b7d-b017-2d1910a8a98f{fill:none;}.uuid-533f01c1-fae2-4b7d-b017-2d1910a8a98f,.uuid-d40105d8-a8df-44e5-9aa3-15b0447e0fe9{stroke-width:0px;}.uuid-d40105d8-a8df-44e5-9aa3-15b0447e0fe9{fill:#151515;}</style></defs><g id="uuid-24ccb8be-293a-4fc3-bc28-8b233571fb4a"><rect class="uuid-533f01c1-fae2-4b7d-b017-2d1910a8a98f" width="32" height="32"/></g><g id="uuid-12d52240-95ea-4f5a-a7f3-c9b27e6eb070"><path class="uuid-d40105d8-a8df-44e5-9aa3-15b0447e0fe9" d="M29.5,1H2.5c-.8271,0-1.5.6729-1.5,1.5v27c0,.8271.6729,1.5,1.5,1.5h27c.8271,0,1.5-.6729,1.5-1.5V2.5c0-.8271-.6729-1.5-1.5-1.5ZM26.125,18c0,.6211-.5039,1.125-1.125,1.125s-1.125-.5039-1.125-1.125v-8.2832l-14.0791,14.0791c-.2197.2197-.5078.3291-.7959.3291s-.5762-.1094-.7959-.3291c-.4385-.4395-.4385-1.1523,0-1.5918l14.0791-14.0791h-8.2832c-.6211,0-1.125-.5039-1.125-1.125s.5039-1.125,1.125-1.125h10.5c.8965,0,1.625.7285,1.625,1.625v10.5Z"/></g></svg>

<svg xmlns="http://www.w3.org/2000/svg" viewBox="0 0 32 32">
  <path d="M0 0h32v32H0z" fill="none"/>
  <path d="M29.5 1h-27C1.673 1 1 1.673 1 2.5v27c0 .827.673 1.5 1.5 1.5h27c.827 0 1.5-.673 1.5-1.5v-27c0-.827-.673-1.5-1.5-1.5Zm-3.375 17a1.125 1.125 0 0 1-2.25 0V9.717L9.795 23.796a1.122 1.122 0 0 1-1.592 0 1.128 1.128 0 0 1 .001-1.592l14.08-14.079H14a1.125 1.125 0 0 1 0-2.25h10.5c.896 0 1.625.729 1.625 1.625V18Z" fill="#151515"/>
</svg>
